X:3
T:Persian Ricardo,The. (p)1801.PN.03
T:Gallopede,The (p)1801.PN.03
M:4/4
L:1/8
Q:1/2=110
S:Preston's 24 CD's for 1801
R:.Gallop ?
O:England
A:London
Z:vmp.Chris Partington
W:Change sides, back again, down the middle & right & left at top.
K:G
d/c/|BB/c/ AA/B/|GGG A/B/|cc/d/ BB/c/|AAA d/c/|!
BB/c/ AA/B/|GGG A/B/|c/B/A/G/ F/G/A/B/|GGG|!
|d/c/|Bg/f/ ee/d/|(d/c/B/c/) Ad/c/|Bg/f/ e/d/c/B/|\
AAA d/c/|!
Bg/f/ ee/d/|(d/c/B/c/) A d/c/|B/d/c/B/ A/c/B/A/|GGG|!
|B/c/|dddg|dddg|dd e/d/c/B/|cAA B/c/|!
dddg|dddg|dB/c/ d/c/B/A/|GGG|]

